fs/home_32_filled.svg

<svg viewBox="0 0 32 32" fill="none" xmlns="http://www.w3.org/2000/svg" height="1em" width="1em">
  <path d="M18.1049 2.77673C16.8912 1.74514 15.1088 1.74513 13.8952 2.77672L4.14515 11.0642C3.41868 11.6817 3 12.587 3 13.5405V26.5C3 27.8807 4.11929 29 5.5 29H10.5C11.8807 29 13 27.8807 13 26.5V19.5C13 19.2239 13.2239 19 13.5 19H18C18.2761 19 18.5 19.2239 18.5 19.5V26.5C18.5 27.8807 19.6193 29 21 29H26.5C27.8807 29 29 27.8807 29 26.5V13.5405C29 12.587 28.5813 11.6817 27.8549 11.0642L18.1049 2.77673Z" fill="#212121"/>
</svg>

<svg viewBox="0 0 32 32" fill="none" xmlns="http://www.w3.org/2000/svg" height="1em" width="1em">
  <path d="M18.105 2.777a3.25 3.25 0 0 0-4.21 0l-9.75 8.287A3.25 3.25 0 0 0 3 13.54V26.5A2.5 2.5 0 0 0 5.5 29h5a2.5 2.5 0 0 0 2.5-2.5v-7a.5.5 0 0 1 .5-.5H18a.5.5 0 0 1 .5.5v7A2.5 2.5 0 0 0 21 29h5.5a2.5 2.5 0 0 0 2.5-2.5V13.54a3.25 3.25 0 0 0-1.145-2.476l-9.75-8.287Z" fill="#212121"/>
</svg>
